_site/images/homepage/heart-hand.svg

<svg fill="none" height="30" viewBox="0 0 30 30" width="30" xmlns="http://www.w3.org/2000/svg"><rect fill="#00769d" height="30" rx="7" width="30"/><g fill="#fff"><path clip-rule="evenodd" d="m18.2026 11.7893-3.2211 3.2213-3.2212-3.2213c-.8656-.8657-.8656-2.27432 0-3.14001.8657-.86566 2.2742-.86569 3.1398 0l.0814.08134.0814-.08134c.8656-.86572 2.2741-.86572 3.1397 0 .8657.86569.8657 2.27431 0 3.14001zm-4.8723-2.85217c-.3285 0-.6569.125-.907.3751-.5001.50012-.5001 1.31397-.0001 1.81407l2.5583 2.5584 2.5582-2.5584c.5001-.5001.5001-1.31392 0-1.81407-.2423-.24225-.5644-.37569-.907-.37569s-.6647.13344-.907.37569l-.7442.74427-.7443-.74427c-.25-.25003-.5785-.3751-.9069-.3751zm9.199 5.68417c.299.2867.4661.6728.4706 1.0871.0045.4144-.1543.804-.4471 1.0971l-4.2514 4.2549h-6.9999l-1.93787 1.9395h-2.36363v-4.2863l3.5931-3.5962h5.4608c.8371 0 1.5182.6814 1.5182 1.5191 0 .0557-.003.1107-.0089.1649h.6738l2.1552-2.1572c.2842-.2844.662-.4434 1.0639-.4477l.0168-.0001c.3957 0 .7703.1505 1.0564.4249zm-4.6165 5.5015 3.9768-3.9801c.1132-.1133.1746-.2639.1729-.4242s-.0664-.3096-.182-.4204c-.2298-.2204-.5999-.2164-.8251.0089l-2.4298 2.432h-1.5282c-.2722.2581-.6397.4166-1.0435.4166h-3.7151v-.9376h3.7151c.3202 0 .5807-.2609.5807-.5815 0-.3207-.2605-.5815-.5807-.5815h-5.0722l-3.0442 3.0467v2.9607h1.03756l1.93794-1.9396z" fill-rule="evenodd"/><path d="m14.9815 15.0106-.1768.1768c.0469.0469.1105.0732.1768.0732s.1299-.0263.1768-.0732zm3.2211-3.2213.1768.1767zm-6.4423 0-.1768.1767zm0-3.14001-.1767-.17678-.0001.00001zm3.1398 0-.1768.17677.0001.00004zm.0814.08134-.1768.17681c.0977.09759.2559.09759.3535 0zm.0814-.08134.1767.17681v-.00004zm3.1397 0-.1767.17676v.00001zm-5.7793.66294-.1768-.17678v.00001zm-.0001 1.81407-.1768.1768h.0001zm2.5583 2.5584-.1768.1768c.0469.0469.1104.0732.1768.0732.0663 0 .1299-.0263.1767-.0732zm2.5582-2.5584.1768.1768zm0-1.81407.1768-.17677v-.00001zm-1.814 0-.1767-.17679v.00002zm-.7442.74427-.1768.1768c.0469.0469.1105.0732.1768.0732s.1299-.0263.1768-.0732zm-.7443-.74427.1768-.17677v-.00001zm8.7627 6.39617.25-.0027zm-.4706-1.0871-.173.1805zm.0235 2.1842.1768.1767.0001-.0001zm-4.2514 4.2549v.25c.0663 0 .13-.0264.1769-.0733zm-6.9999 0v-.25c-.0663 0-.1299.0264-.1768.0733zm-1.93787 1.9395v.25c.06634 0 .12996-.0263.17685-.0733zm-2.36363 0h-.25c0 .1381.11193.25.25.25zm0-4.2863-.17685-.1767c-.04684.0468-.07315.1104-.07315.1767zm3.5931-3.5962v-.25c-.0663 0-.1299.0263-.1768.0733zm6.9701 1.684-.2486-.027c-.0076.0706.0151.1411.0625.1939.0474.0529.1151.0831.1861.0831zm.6738 0v.25c.0663 0 .13-.0264.1769-.0733zm2.1552-2.1572-.1768-.1767zm1.0639-.4477-.0014-.25h-.0013zm.0168-.0001v-.25h-.0014zm.4167 1.9463.1768.1767h.0001zm-3.9768 3.9801v.25c.0664 0 .13-.0263.1769-.0733zm4.1497-4.4043.25-.0026zm-.182-.4204-.173.1804zm-.8251.0089-.1768-.1768v.0001zm-2.4298 2.432v.25c.0663 0 .13-.0264.1769-.0733zm-1.5282 0v-.25c-.064 0-.1255.0245-.172.0685zm-4.7586.4166h-.25c0 .1381.112.25.25.25zm0-.9376v-.25c-.138 0-.25.112-.25.25zm-1.3571-1.163v-.25c-.0664 0-.13.0263-.1769.0733zm-3.0442 3.0467-.17685-.1767c-.04684.0469-.07315.1104-.07315.1767zm0 2.9607h-.25c0 .138.11193.25.25.25zm1.03756 0v.25c.06634 0 .12996-.0264.17685-.0733zm1.93794-1.9396v-.25c-.0664 0-.13.0264-.1769.0733zm4.2453-4.9354 3.2211-3.2214-.3535-.3535-3.2212 3.2213zm-3.5748-3.2214 3.2212 3.2214.3536-.3536-3.2212-3.2213zm0-3.49348c-.9632.96332-.9632 2.53018 0 3.49348l.3536-.3535c-.768-.7681-.768-2.01838 0-2.78644zm3.4934 0c-.9632-.96334-2.53-.96328-3.4933-.00001l.3535.35356c.7681-.76804 2.0183-.76805 2.7862-.00001zm.0813.0813-.0813-.08134-.3535.35362.0813.08134zm-.2721-.08134-.0814.08134.3535.35362.0814-.08134zm3.4933.00005c-.9632-.96337-2.5301-.96337-3.4933-.00001l.3535.35354c.768-.76808 2.0183-.76808 2.7863-.00001zm0 3.49347c.9633-.9633.9633-2.53016 0-3.49348l-.3535.35354c.768.76806.768 2.01834 0 2.78644zm-5.7793-2.477c.2012-.20117.4651-.30187.7302-.30187v-.5c-.3919 0-.7848.14931-1.0838.44832zm-.0001 1.4606c-.4024-.4026-.4024-1.05811.0001-1.4606l-.3536-.35354c-.5977.59775-.5977 1.56984-.0001 2.16764zm2.5582 2.5583-2.5582-2.5584-.3535.3536 2.5582 2.5584zm2.2047-2.5584-2.5582 2.5584.3535.3536 2.5583-2.5584zm0-1.46051c.4025.40253.4025 1.05801 0 1.46061l.3536.3535c.5977-.5978.5977-1.56985 0-2.16764zm-.7302-.30245c.2763 0 .5348.10709.7302.30246l.3536-.35355c-.2892-.28913-.6749-.44891-1.0838-.44891zm-.7302.30247c.1954-.19538.4539-.30247.7302-.30247v-.5c-.4089 0-.7946.15979-1.0837.4489zm-.7442.74429.7442-.7443-.3535-.35354-.7443.74431zm-1.0978-.7443.7442.7443.3536-.35353-.7443-.74431zm-.7302-.30187c.265 0 .529.10076.7302.30187l.3535-.35355c-.2989-.29895-.6919-.44832-1.0837-.44832zm9.9196 6.51857c-.0052-.4815-.2-.9316-.5475-1.2648l-.3461.3609c.2505.2401.3899.5621.3936.9093zm-.5202 1.2764c.3402-.3406.5254-.7948.5202-1.2764l-.5.0054c.0038.3472-.1287.6721-.374.9177zm-4.2514 4.255 4.2513-4.2549-.3537-.3534-4.2513 4.2549zm-7.1768.0733h6.9999v-.5h-6.9999zm-1.76102 1.8662 1.93792-1.9395-.3537-.3534-1.93793 1.9395zm-2.54048.0733h2.36363v-.5h-2.36363zm-.25-4.5363v4.2863h.5v-4.2863zm3.6663-3.7729-3.59315 3.5962.3537.3534 3.59315-3.5962zm5.6376-.0733h-5.4608v.5h5.4608zm1.7682 1.7691c0-.9756-.7929-1.7691-1.7682-1.7691v.5c.6989 0 1.2682.5694 1.2682 1.2691zm-.0104.1918c.0069-.0631.0104-.1271.0104-.1918h-.5c0 .0467-.0026.0927-.0075.1379zm.4253-.2769h-.6738v.5h.6738zm1.9784-2.0839-2.1553 2.1572.3538.3534 2.1552-2.1572zm1.238-.521c-.4673.005-.9076.1903-1.238.521l.3537.3534c.2379-.2381.5532-.3708.8897-.3744zm.0181-.0001-.0168.0001.0028.5.0168-.0001zm1.2309.4945c-.3327-.319-.7693-.4945-1.2295-.4945v.5c.3312 0 .6438.1256.8834.3554zm-.9897 1.5251-3.9767 3.9801.3537.3534 3.9767-3.9801zm.0998-.2448c.001.0931-.0341.1791-.0998.2449l.3538.3533c.1607-.1609.2483-.3761.246-.6035zm-.105-.2427c.0671.0644.104.1496.105.2427l.5-.0053c-.0024-.2275-.0948-.4409-.2589-.5983zm-.4752.0052c.129-.1291.3436-.1313.4752-.0052l.3461-.3609c-.3281-.3145-.8537-.3088-1.175.0126zm-2.4298 2.432 2.4298-2.432-.3537-.3534-2.4299 2.432zm-1.7051.0733h1.5282v-.5h-1.5282zm-1.0435.4166c.4705 0 .8988-.185 1.2155-.4852l-.344-.3629c-.2278.216-.5344.3481-.8715.3481zm-3.7151 0h3.7151v-.5h-3.7151zm-.25-1.1876v.9376h.5v-.9376zm3.9651-.25h-3.7151v.5h3.7151zm.3307-.3315c0 .1829-.1489.3315-.3307.3315v.5c.4586 0 .8307-.3731.8307-.8315zm-.3307-.3315c.1818 0 .3307.1486.3307.3315h.5c0-.4584-.3721-.8315-.8307-.8315zm-5.0722 0h5.0722v-.5h-5.0722zm-2.86735 2.9734 3.04415-3.0467-.3537-.3534-3.04415 3.0467zm.07315 2.784v-2.9607h-.5v2.9607zm.78756-.25h-1.03756v.5h1.03756zm1.76104-1.8663-1.93789 1.9396.3537.3534 1.93789-1.9396zm7.1767-.0733h-6.9998v.5h6.9998z"/></g></svg>

<svg width="30" height="30" viewBox="0 0 30 30" fill="none" xmlns="http://www.w3.org/2000/svg">
<rect width="30" height="30" rx="7" fill="#00769D"/>
<path fill-rule="evenodd" clip-rule="evenodd" d="M18.2026 11.7893L14.9815 15.0106L11.7603 11.7893C10.8947 10.9236 10.8947 9.51498 11.7603 8.64929C12.626 7.78363 14.0345 7.7836 14.9001 8.64929L14.9815 8.73063L15.0629 8.64929C15.9285 7.78357 17.337 7.78357 18.2026 8.64929C19.0683 9.51498 19.0683 10.9236 18.2026 11.7893ZM13.3303 8.93713C13.0018 8.93713 12.6734 9.06213 12.4233 9.31223C11.9232 9.81235 11.9232 10.6262 12.4232 11.1263L14.9815 13.6847L17.5397 11.1263C18.0398 10.6262 18.0398 9.81238 17.5397 9.31223C17.2974 9.06998 16.9753 8.93654 16.6327 8.93654C16.2901 8.93654 15.968 9.06998 15.7257 9.31223L14.9815 10.0565L14.2372 9.31223C13.9872 9.0622 13.6587 8.93713 13.3303 8.93713ZM22.5293 14.6213C22.8283 14.908 22.9954 15.2941 22.9999 15.7084C23.0044 16.1228 22.8456 16.5124 22.5528 16.8055L18.3014 21.0604H11.3015L9.36363 22.9999H7V18.7136L10.5931 15.1174H16.0539C16.891 15.1174 17.5721 15.7988 17.5721 16.6365C17.5721 16.6922 17.5691 16.7472 17.5632 16.8014H18.237L20.3922 14.6442C20.6764 14.3598 21.0542 14.2008 21.4561 14.1965L21.4729 14.1964C21.8686 14.1964 22.2432 14.3469 22.5293 14.6213ZM17.9128 20.1228L21.8896 16.1427C22.0028 16.0294 22.0642 15.8788 22.0625 15.7185C22.0608 15.5582 21.9961 15.4089 21.8805 15.2981C21.6507 15.0777 21.2806 15.0817 21.0554 15.307L18.6256 17.739H17.0974C16.8252 17.9971 16.4577 18.1556 16.0539 18.1556H12.3388V17.218H16.0539C16.3741 17.218 16.6346 16.9571 16.6346 16.6365C16.6346 16.3158 16.3741 16.055 16.0539 16.055H10.9817L7.9375 19.1017V22.0624H8.97506L10.913 20.1228H17.9128Z" fill="white"/>
<path d="M14.9815 15.0106L14.8047 15.1874C14.8516 15.2343 14.9152 15.2606 14.9815 15.2606C15.0478 15.2606 15.1114 15.2343 15.1583 15.1874L14.9815 15.0106ZM18.2026 11.7893L18.3794 11.966V11.966L18.2026 11.7893ZM11.7603 11.7893L11.5835 11.966L11.5835 11.966L11.7603 11.7893ZM11.7603 8.64929L11.5836 8.47251L11.5835 8.47252L11.7603 8.64929ZM14.9001 8.64929L14.7233 8.82606L14.7234 8.8261L14.9001 8.64929ZM14.9815 8.73063L14.8047 8.90744C14.9024 9.00503 15.0606 9.00503 15.1582 8.90744L14.9815 8.73063ZM15.0629 8.64929L15.2396 8.8261L15.2396 8.82606L15.0629 8.64929ZM18.2026 8.64929L18.0259 8.82605L18.0259 8.82606L18.2026 8.64929ZM12.4233 9.31223L12.2465 9.13545L12.2465 9.13546L12.4233 9.31223ZM12.4232 11.1263L12.2464 11.3031L12.2465 11.3031L12.4232 11.1263ZM14.9815 13.6847L14.8047 13.8615C14.8516 13.9084 14.9151 13.9347 14.9815 13.9347C15.0478 13.9347 15.1114 13.9084 15.1582 13.8615L14.9815 13.6847ZM17.5397 11.1263L17.7165 11.3031L17.7165 11.3031L17.5397 11.1263ZM17.5397 9.31223L17.7165 9.13546L17.7165 9.13545L17.5397 9.31223ZM15.7257 9.31223L15.549 9.13544L15.549 9.13546L15.7257 9.31223ZM14.9815 10.0565L14.8047 10.2333C14.8516 10.2802 14.9152 10.3065 14.9815 10.3065C15.0478 10.3065 15.1114 10.2802 15.1583 10.2333L14.9815 10.0565ZM14.2372 9.31223L14.414 9.13546L14.414 9.13545L14.2372 9.31223ZM22.9999 15.7084L23.2499 15.7057L22.9999 15.7084ZM22.5293 14.6213L22.3563 14.8018L22.3563 14.8018L22.5293 14.6213ZM22.5528 16.8055L22.7296 16.9822L22.7297 16.9821L22.5528 16.8055ZM18.3014 21.0604V21.3104C18.3677 21.3104 18.4314 21.284 18.4783 21.2371L18.3014 21.0604ZM11.3015 21.0604V20.8104C11.2352 20.8104 11.1716 20.8368 11.1247 20.8837L11.3015 21.0604ZM9.36363 22.9999V23.2499C9.42997 23.2499 9.49359 23.2236 9.54048 23.1766L9.36363 22.9999ZM7 22.9999H6.75C6.75 23.138 6.86193 23.2499 7 23.2499V22.9999ZM7 18.7136L6.82315 18.5369C6.77631 18.5837 6.75 18.6473 6.75 18.7136H7ZM10.5931 15.1174V14.8674C10.5268 14.8674 10.4632 14.8937 10.4163 14.9407L10.5931 15.1174ZM17.5632 16.8014L17.3146 16.7744C17.307 16.845 17.3297 16.9155 17.3771 16.9683C17.4245 17.0212 17.4922 17.0514 17.5632 17.0514V16.8014ZM18.237 16.8014V17.0514C18.3033 17.0514 18.367 17.025 18.4139 16.9781L18.237 16.8014ZM20.3922 14.6442L20.2154 14.4675H20.2154L20.3922 14.6442ZM21.4561 14.1965L21.4547 13.9465L21.4534 13.9465L21.4561 14.1965ZM21.4729 14.1964V13.9464L21.4715 13.9464L21.4729 14.1964ZM21.8896 16.1427L22.0664 16.3194L22.0665 16.3194L21.8896 16.1427ZM17.9128 20.1228V20.3728C17.9792 20.3728 18.0428 20.3465 18.0897 20.2995L17.9128 20.1228ZM22.0625 15.7185L22.3125 15.7159V15.7159L22.0625 15.7185ZM21.8805 15.2981L21.7075 15.4785L21.7075 15.4785L21.8805 15.2981ZM21.0554 15.307L20.8786 15.1302L20.8786 15.1303L21.0554 15.307ZM18.6256 17.739V17.989C18.6919 17.989 18.7556 17.9626 18.8025 17.9157L18.6256 17.739ZM17.0974 17.739V17.489C17.0334 17.489 16.9719 17.5135 16.9254 17.5575L17.0974 17.739ZM12.3388 18.1556H12.0888C12.0888 18.2937 12.2008 18.4056 12.3388 18.4056V18.1556ZM12.3388 17.218V16.968C12.2008 16.968 12.0888 17.08 12.0888 17.218H12.3388ZM10.9817 16.055V15.805C10.9153 15.805 10.8517 15.8313 10.8048 15.8783L10.9817 16.055ZM7.9375 19.1017L7.76065 18.925C7.71381 18.9719 7.6875 19.0354 7.6875 19.1017H7.9375ZM7.9375 22.0624H7.6875C7.6875 22.2004 7.79943 22.3124 7.9375 22.3124V22.0624ZM8.97506 22.0624V22.3124C9.0414 22.3124 9.10502 22.286 9.15191 22.2391L8.97506 22.0624ZM10.913 20.1228V19.8728C10.8466 19.8728 10.783 19.8992 10.7361 19.9461L10.913 20.1228ZM15.1583 15.1874L18.3794 11.966L18.0259 11.6125L14.8047 14.8338L15.1583 15.1874ZM11.5835 11.966L14.8047 15.1874L15.1583 14.8338L11.9371 11.6125L11.5835 11.966ZM11.5835 8.47252C10.6203 9.43584 10.6203 11.0027 11.5835 11.966L11.9371 11.6125C11.1691 10.8444 11.1691 9.59412 11.9371 8.82606L11.5835 8.47252ZM15.0769 8.47252C14.1137 7.50918 12.5469 7.50924 11.5836 8.47251L11.9371 8.82607C12.7052 8.05803 13.9554 8.05802 14.7233 8.82606L15.0769 8.47252ZM15.1582 8.55382L15.0769 8.47248L14.7234 8.8261L14.8047 8.90744L15.1582 8.55382ZM14.8861 8.47248L14.8047 8.55382L15.1582 8.90744L15.2396 8.8261L14.8861 8.47248ZM18.3794 8.47253C17.4162 7.50916 15.8493 7.50916 14.8861 8.47252L15.2396 8.82606C16.0076 8.05798 17.2579 8.05798 18.0259 8.82605L18.3794 8.47253ZM18.3794 11.966C19.3427 11.0027 19.3427 9.43584 18.3794 8.47252L18.0259 8.82606C18.7939 9.59412 18.7939 10.8444 18.0259 11.6125L18.3794 11.966ZM12.6001 9.489C12.8013 9.28783 13.0652 9.18713 13.3303 9.18713V8.68713C12.9384 8.68713 12.5455 8.83644 12.2465 9.13545L12.6001 9.489ZM12.6 10.9496C12.1976 10.547 12.1976 9.89149 12.6001 9.489L12.2465 9.13546C11.6488 9.73321 11.6488 10.7053 12.2464 11.3031L12.6 10.9496ZM15.1582 13.5079L12.6 10.9495L12.2465 11.3031L14.8047 13.8615L15.1582 13.5079ZM17.3629 10.9495L14.8047 13.5079L15.1582 13.8615L17.7165 11.3031L17.3629 10.9495ZM17.3629 9.48899C17.7654 9.89152 17.7654 10.547 17.3629 10.9496L17.7165 11.3031C18.3142 10.7053 18.3142 9.73325 17.7165 9.13546L17.3629 9.48899ZM16.6327 9.18654C16.909 9.18654 17.1675 9.29363 17.3629 9.489L17.7165 9.13545C17.4273 8.84632 17.0416 8.68654 16.6327 8.68654V9.18654ZM15.9025 9.48901C16.0979 9.29363 16.3564 9.18654 16.6327 9.18654V8.68654C16.2238 8.68654 15.8381 8.84633 15.549 9.13544L15.9025 9.48901ZM15.1583 10.2333L15.9025 9.489L15.549 9.13546L14.8047 9.87977L15.1583 10.2333ZM14.0605 9.489L14.8047 10.2333L15.1583 9.87977L14.414 9.13546L14.0605 9.489ZM13.3303 9.18713C13.5953 9.18713 13.8593 9.28789 14.0605 9.489L14.414 9.13545C14.1151 8.8365 13.7221 8.68713 13.3303 8.68713V9.18713ZM23.2499 15.7057C23.2447 15.2242 23.0499 14.7741 22.7024 14.4409L22.3563 14.8018C22.6068 15.0419 22.7462 15.3639 22.7499 15.7111L23.2499 15.7057ZM22.7297 16.9821C23.0699 16.6415 23.2551 16.1873 23.2499 15.7057L22.7499 15.7111C22.7537 16.0583 22.6212 16.3832 22.3759 16.6288L22.7297 16.9821ZM18.4783 21.2371L22.7296 16.9822L22.3759 16.6288L18.1246 20.8837L18.4783 21.2371ZM11.3015 21.3104H18.3014V20.8104H11.3015V21.3104ZM9.54048 23.1766L11.4784 21.2371L11.1247 20.8837L9.18677 22.8232L9.54048 23.1766ZM7 23.2499H9.36363V22.7499H7V23.2499ZM6.75 18.7136V22.9999H7.25V18.7136H6.75ZM10.4163 14.9407L6.82315 18.5369L7.17685 18.8903L10.77 15.2941L10.4163 14.9407ZM16.0539 14.8674H10.5931V15.3674H16.0539V14.8674ZM17.8221 16.6365C17.8221 15.6609 17.0292 14.8674 16.0539 14.8674V15.3674C16.7528 15.3674 17.3221 15.9368 17.3221 16.6365H17.8221ZM17.8117 16.8283C17.8186 16.7652 17.8221 16.7012 17.8221 16.6365H17.3221C17.3221 16.6832 17.3195 16.7292 17.3146 16.7744L17.8117 16.8283ZM18.237 16.5514H17.5632V17.0514H18.237V16.5514ZM20.2154 14.4675L18.0601 16.6247L18.4139 16.9781L20.5691 14.8209L20.2154 14.4675ZM21.4534 13.9465C20.9861 13.9515 20.5458 14.1368 20.2154 14.4675L20.5691 14.8209C20.807 14.5828 21.1223 14.4501 21.4588 14.4465L21.4534 13.9465ZM21.4715 13.9464L21.4547 13.9465L21.4575 14.4465L21.4743 14.4464L21.4715 13.9464ZM22.7024 14.4409C22.3697 14.1219 21.9331 13.9464 21.4729 13.9464V14.4464C21.8041 14.4464 22.1167 14.572 22.3563 14.8018L22.7024 14.4409ZM21.7127 15.966L17.736 19.9461L18.0897 20.2995L22.0664 16.3194L21.7127 15.966ZM21.8125 15.7212C21.8135 15.8143 21.7784 15.9003 21.7127 15.9661L22.0665 16.3194C22.2272 16.1585 22.3148 15.9433 22.3125 15.7159L21.8125 15.7212ZM21.7075 15.4785C21.7746 15.5429 21.8115 15.6281 21.8125 15.7212L22.3125 15.7159C22.3101 15.4884 22.2177 15.275 22.0536 15.1176L21.7075 15.4785ZM21.2323 15.4837C21.3613 15.3546 21.5759 15.3524 21.7075 15.4785L22.0536 15.1176C21.7255 14.8031 21.1999 14.8088 20.8786 15.1302L21.2323 15.4837ZM18.8025 17.9157L21.2323 15.4837L20.8786 15.1303L18.4487 17.5623L18.8025 17.9157ZM17.0974 17.989H18.6256V17.489H17.0974V17.989ZM16.0539 18.4056C16.5244 18.4056 16.9527 18.2206 17.2694 17.9204L16.9254 17.5575C16.6976 17.7735 16.391 17.9056 16.0539 17.9056V18.4056ZM12.3388 18.4056H16.0539V17.9056H12.3388V18.4056ZM12.0888 17.218V18.1556H12.5888V17.218H12.0888ZM16.0539 16.968H12.3388V17.468H16.0539V16.968ZM16.3846 16.6365C16.3846 16.8194 16.2357 16.968 16.0539 16.968V17.468C16.5125 17.468 16.8846 17.0949 16.8846 16.6365H16.3846ZM16.0539 16.305C16.2357 16.305 16.3846 16.4536 16.3846 16.6365H16.8846C16.8846 16.1781 16.5125 15.805 16.0539 15.805V16.305ZM10.9817 16.305H16.0539V15.805H10.9817V16.305ZM8.11435 19.2784L11.1585 16.2317L10.8048 15.8783L7.76065 18.925L8.11435 19.2784ZM8.1875 22.0624V19.1017H7.6875V22.0624H8.1875ZM8.97506 21.8124H7.9375V22.3124H8.97506V21.8124ZM10.7361 19.9461L8.79821 21.8857L9.15191 22.2391L11.0898 20.2995L10.7361 19.9461ZM17.9128 19.8728H10.913V20.3728H17.9128V19.8728Z" fill="white"/>
</svg>
